/* XPM */
static char *close_inactive[] = {
"26 26 3 1",
".	c #D0D0D0",
"#	c #888888",
" 	c None",
"  ......................  ",
" ........................ ",
"..........................",
"..........................",
"..........................",
"..........................",
"..........................",
"..........................",
"..........................",
".........##......##.......",
"..........##....##........",
"...........##..##.........",
"............####..........",
".............##...........",
"............####..........",
"...........##..##.........",
"..........##....##........",
".........##......##.......",
"..........................",
"..........................",
"..........................",
"..........................",
"..........................",
"..........................",
" ........................ ",
"  ......................  "
};
