/* XPM */
static char *close[] = {
"20 20 1 1",
"0 c #cc0000",
"00000000000000000000",
"00000000000000000000",
"00000000000000000000",
"00000000000000000000",
"00000000000000000000",
"00000000000000000000",
"00000000000000000000",
"00000000000000000000",
"00000000000000000000",
"00000000000000000000",
"00000000000000000000",
"00000000000000000000",
"00000000000000000000",
"00000000000000000000",
"00000000000000000000",
"00000000000000000000",
"00000000000000000000",
"00000000000000000000",
"00000000000000000000",
"00000000000000000000",
};
