/* XPM */
static char *close_active[] = {
"26 26 3 1",
".	c #C0392B",
"#	c #FFFFFF",
" 	c None",
"  ......................  ",
" ........................ ",
"..........................",
"..........................",
"..........................",
"..........................",
"..........................",
"..........................",
"..........................",
".........##......##.......",
"..........##....##........",
"...........##..##.........",
"............####..........",
".............##...........",
"............####..........",
"...........##..##.........",
"..........##....##........",
".........##......##.......",
"..........................",
"..........................",
"..........................",
"..........................",
"..........................",
"..........................",
" ........................ ",
"  ......................  "
};
