/* XPM */
static char *maximize_active[] = {
"26 26 3 1",
".	c #2C4E82",
"#	c #FFFFFF",
" 	c None",
"  ......................  ",
" ........................ ",
"..........................",
"..........................",
"..........................",
"..........................",
"..........................",
"..........................",
"........###########.......",
"........###########.......",
"........#.........#.......",
"........#.........#.......",
"........#.........#.......",
"........#.........#.......",
"........#.........#.......",
"........#.........#.......",
"........#.........#.......",
"........#.........#.......",
"........###########.......",
"..........................",
"..........................",
"..........................",
"..........................",
"..........................",
" ........................ ",
"  ......................  "
};
