/* XPM */
static char *minimize-pressed[] = {
"20 20 2 1",
"0 c #2C4E82",
"1 c #51A2DA",
"11111111111111111111",
"11111111111111111111",
"11111111111111111111",
"11111111111111111111",
"11111111111111111111",
"11111111111111111111",
"11111111111111111111",
"11111111111111111111",
"11111111111111111111",
"11111111111111111111",
"11111111000011111111",
"11111111111111111111",
"11111111111111111111",
"11111111111111111111",
"11111111111111111111",
"11111111111111111111",
"11111111111111111111",
"11111111111111111111",
"11111111111111111111",
"11111111111111111111",
};
