/* XPM */
static char *minimize-inactive[] = {
"20 20 2 1",
"0 c #2C4E82",
"1 c #B0B0B0",
"11111111111111111111",
"11111111111111111111",
"11111111111111111111",
"11111111111111111111",
"11111111111111111111",
"11111111111111111111",
"11111111111111111111",
"11111111111111111111",
"11111111111111111111",
"11111111111111111111",
"11111111000011111111",
"11111111111111111111",
"11111111111111111111",
"11111111111111111111",
"11111111111111111111",
"11111111111111111111",
"11111111111111111111",
"11111111111111111111",
"11111111111111111111",
"11111111111111111111",
};
