/* XPM */
static char *shade-inactive[] = {
"20 20 1 1",
"0 c #B0B0B0",
"00000000000000000000",
"00000000000000000000",
"00000000000000000000",
"00000000000000000000",
"00000000000000000000",
"00000000000000000000",
"00000000000000000000",
"00000000000000000000",
"00000000000000000000",
"00000000000000000000",
"00000000000000000000",
"00000000000000000000",
"00000000000000000000",
"00000000000000000000",
"00000000000000000000",
"00000000000000000000",
"00000000000000000000",
"00000000000000000000",
"00000000000000000000",
"00000000000000000000",
};
