/* XPM */
static char *stick_toggled_pressed[] = {
"26 26 3 1",
".	c #51A2DA",
"#	c #FFFFFF",
" 	c None",
"  ......................  ",
" ........................ ",
"..........................",
"..........................",
"..........................",
"..........................",
"..........................",
"..........................",
"..........................",
"..........................",
"..........#######.........",
"..........#######.........",
"..........#######.........",
"..........#######.........",
"..........#######.........",
"..........#######.........",
"..........#######.........",
"..........................",
"..........................",
"..........................",
"..........................",
"..........................",
"..........................",
"..........................",
" ........................ ",
"  ......................  "
};
