/* XPM */
static char *stick[] = {
"20 20 1 1",
"0 c #2C4E82",
"00000000000000000000",
"00000000000000000000",
"00000000000000000000",
"00000000000000000000",
"00000000000000000000",
"00000000000000000000",
"00000000000000000000",
"00000000000000000000",
"00000000000000000000",
"00000000000000000000",
"00000000000000000000",
"00000000000000000000",
"00000000000000000000",
"00000000000000000000",
"00000000000000000000",
"00000000000000000000",
"00000000000000000000",
"00000000000000000000",
"00000000000000000000",
"00000000000000000000",
};
