/* XPM */
static char *stick-pressed[] = {
"20 20 1 1",
"0 c #51A2DA",
"00000000000000000000",
"00000000000000000000",
"00000000000000000000",
"00000000000000000000",
"00000000000000000000",
"00000000000000000000",
"00000000000000000000",
"00000000000000000000",
"00000000000000000000",
"00000000000000000000",
"00000000000000000000",
"00000000000000000000",
"00000000000000000000",
"00000000000000000000",
"00000000000000000000",
"00000000000000000000",
"00000000000000000000",
"00000000000000000000",
"00000000000000000000",
"00000000000000000000",
};
